T: Leaving Glenurquhart
M: 4/4
L: 1/8
K: Amix
e>d| c>Bc<A e2c<A|A2a>e f>ec<A|c>Bc<A e>Ac<A|c<ed>B G2e>d|
c>Bc<A e2c<A|A2a>e f>ec<A|B>cd>e f<ae>B|c2A2 A2:|
|:g2| a>ga>f e2c<A|A2a>e f>ec<A|a>ga>e c<eA>e|c2B2 B2g2|
a>ga>f e2c<A|A2a>e f>ec<A|B>cd>e f<ae>B|c2A2 A2:|
|:e>d| c>Bc<A A2e>A|c<ea>e f>ec<A|c>Bc<A c<eA>e|c2B2 B2e>d|
c>Bc<A A2e>A|c<ea>e f>ec<A|B>cd>e f<ae>B|c2A2 A2:|
|:c>d| e>cA>c e>Ac<A|d2c<f e>Ac<A|A2c<A c<eA>e|c2B2 B2c>d|
e>cA>c e>Ac<A|d2c<f e>Ac<A|B>cd>e f<ae>B|c2A2 A2:||
